X: 366
T: A Stone's Throw
R: polka
M: 2/4
K: Dmajor
|:f>e dB|AFAA|B/c/d AF|FE E2|
f>e dB|AF AA|B/c/d ec|d2d2:|
|:a>g fd|e/f/g/e/ fd|e/f/g/e/ fd|BA A2|
a>g fd|e/f/g/e/ fd|Bd ce|d2d2:|

